X:1
T:Title
L:1/8
Q:1/4=100
M:4/4
K:C
V:1 treble nm="Grand Piano"
V:1
 z2 AG GFFE | E2 D2 E2 F2 | E2 AG GFFE | E2 D2 E2 F2 | E2 AG B2 GF | E2 D2 E2 F2 | E2 AG GFFE | %7
 E2 D2 E2 F2 | E2 E2 A2 B2 | c2 B2 A2 BA | G2 GG G2 A2 | B2 A2 GGAG |[M:1/4] F2 |[M:3/4] EE F2 G2 | %14
[M:4/4] A2 B2 dccB | B6 EE | F2 G2 A2 B2 | G2 F2 E4 |] %18

